img/inst/mid-inst-icon.svg

<svg width="100" height="100" viewBox="0 0 100 100" fill="none" xmlns="http://www.w3.org/2000/svg">
<rect width="100" height="100" fill="#FE9191"/>
<g clip-path="url(#clip0)">
<path d="M89.9218 33.5202C89.7344 29.2695 89.047 26.3472 88.0623 23.815C87.0465 21.1271 85.4837 18.7206 83.4362 16.7201C81.4357 14.6884 79.0133 13.1097 76.3565 12.1098C73.8097 11.1251 70.9026 10.4377 66.6519 10.2503C62.3694 10.047 61.0099 10 50.1484 10C39.2869 10 37.9274 10.047 33.6608 10.2344C29.4101 10.4218 26.4878 11.1098 23.9562 12.0939C21.2677 13.1097 18.8612 14.6725 16.8607 16.7201C14.829 18.7206 13.251 21.1429 12.2504 23.7997C11.2657 26.3472 10.5783 29.2536 10.3909 33.5043C10.1876 37.7868 10.1406 39.1463 10.1406 50.0078C10.1406 60.8693 10.1876 62.2288 10.375 66.4954C10.5625 70.7461 11.2505 73.6684 12.2351 76.2007C13.251 78.8886 14.829 81.2951 16.8607 83.2956C18.8612 85.3272 21.2835 86.9059 23.9403 87.9058C26.4878 88.8905 29.3943 89.5779 33.6456 89.7653C37.9115 89.9534 39.2717 89.9998 50.1332 89.9998C60.9947 89.9998 62.3542 89.9534 66.6208 89.7653C70.8715 89.5779 73.7938 88.8905 76.3254 87.9058C81.7018 85.8272 85.9525 81.5765 88.0312 76.2007C89.0153 73.6532 89.7033 70.7461 89.8907 66.4954C90.0781 62.2288 90.1251 60.8693 90.1251 50.0078C90.1251 39.1463 90.1092 37.7868 89.9218 33.5202ZM82.7177 66.1828C82.5455 70.0899 81.8892 72.1996 81.3423 73.6062C79.998 77.0913 77.232 79.8574 73.7468 81.2016C72.3403 81.7486 70.2152 82.4049 66.3235 82.5764C62.1039 82.7645 60.8384 82.8109 50.1643 82.8109C39.4902 82.8109 38.2088 82.7645 34.0045 82.5764C30.0975 82.4049 27.9877 81.7486 26.5812 81.2016C24.8469 80.5607 23.2682 79.5448 21.9868 78.2164C20.6584 76.9192 19.6426 75.3564 19.0016 73.622C18.4546 72.2155 17.7984 70.0899 17.6268 66.1987C17.4388 61.9791 17.3924 60.713 17.3924 50.0389C17.3924 39.3649 17.4388 38.0835 17.6268 33.8798C17.7984 29.9728 18.4546 27.863 19.0016 26.4565C19.6426 24.7215 20.6584 23.1434 22.0027 21.8614C23.2993 20.5331 24.8621 19.5172 26.5971 18.8769C28.0036 18.3299 30.1293 17.6736 34.0204 17.5015C38.24 17.3141 39.5061 17.267 50.1796 17.267C60.8695 17.267 62.135 17.3141 66.3393 17.5015C70.2463 17.6736 72.3561 18.3299 73.7627 18.8769C75.497 19.5172 77.0757 20.5331 78.3571 21.8614C79.6854 23.1587 80.7013 24.7215 81.3423 26.4565C81.8892 27.863 82.5455 29.988 82.7177 33.8798C82.9051 38.0994 82.9521 39.3649 82.9521 50.0389C82.9521 60.713 82.9051 61.9633 82.7177 66.1828Z" fill="#FFE2E2"/>
<path d="M50.1485 29.457C38.8029 29.457 29.5977 38.6617 29.5977 50.0079C29.5977 61.3541 38.8029 70.5588 50.1485 70.5588C61.4947 70.5588 70.6994 61.3541 70.6994 50.0079C70.6994 38.6617 61.4947 29.457 50.1485 29.457ZM50.1485 63.3388C42.7881 63.3388 36.8177 57.369 36.8177 50.0079C36.8177 42.6469 42.7881 36.6771 50.1485 36.6771C57.5096 36.6771 63.4794 42.6469 63.4794 50.0079C63.4794 57.369 57.5096 63.3388 50.1485 63.3388Z" fill="#FFE2E2"/>
<path d="M76.3108 28.6444C76.3108 31.2939 74.1626 33.4421 71.5125 33.4421C68.8631 33.4421 66.7148 31.2939 66.7148 28.6444C66.7148 25.9944 68.8631 23.8467 71.5125 23.8467C74.1626 23.8467 76.3108 25.9944 76.3108 28.6444Z" fill="#FFE2E2"/>
</g>
<defs>
<clipPath id="clip0">
<rect width="80" height="80" fill="white" transform="translate(10 10)"/>
</clipPath>
</defs>
</svg>

<svg width="100" height="100" fill="none" xmlns="http://www.w3.org/2000/svg"><path fill="#FE9191" d="M0 0h100v100H0z"/><g clip-path="url(#clip0)" fill="#FFE2E2"><path d="M89.922 33.52c-.188-4.25-.875-7.173-1.86-9.705a19.522 19.522 0 00-4.626-7.095c-2-2.032-4.423-3.61-7.08-4.61-2.546-.985-5.453-1.672-9.704-1.86-4.283-.203-5.642-.25-16.504-.25-10.861 0-12.22.047-16.487.234-4.25.188-7.173.876-9.705 1.86a19.518 19.518 0 00-7.095 4.626c-2.032 2-3.61 4.423-4.61 7.08-.985 2.547-1.673 5.454-1.86 9.704-.203 4.283-.25 5.642-.25 16.504 0 10.861.047 12.22.234 16.487.188 4.251.876 7.173 1.86 9.706a19.728 19.728 0 004.626 7.095c2 2.031 4.422 3.61 7.08 4.61 2.547.984 5.453 1.672 9.705 1.86 4.265.187 5.626.234 16.487.234 10.862 0 12.221-.047 16.488-.235 4.25-.187 7.173-.874 9.704-1.86a20.462 20.462 0 0011.706-11.704c.984-2.548 1.672-5.455 1.86-9.706.187-4.266.234-5.626.234-16.487 0-10.862-.016-12.221-.203-16.488zm-7.204 32.663c-.172 3.907-.829 6.017-1.376 7.423a13.27 13.27 0 01-7.595 7.596c-1.407.547-3.532 1.203-7.424 1.374-4.22.189-5.485.235-16.159.235s-11.955-.047-16.16-.235c-3.906-.171-6.016-.827-7.423-1.374a12.31 12.31 0 01-4.594-2.986 12.437 12.437 0 01-2.985-4.594c-.547-1.406-1.204-3.532-1.375-7.423-.188-4.22-.235-5.486-.235-16.16s.047-11.956.235-16.16c.171-3.906.828-6.016 1.375-7.422a12.16 12.16 0 013-4.596 12.418 12.418 0 014.595-2.984c1.407-.547 3.532-1.203 7.423-1.375 4.22-.188 5.486-.235 16.16-.235 10.69 0 11.955.047 16.16.235 3.906.172 6.016.828 7.423 1.375a12.302 12.302 0 014.594 2.984 12.436 12.436 0 012.985 4.595c.547 1.407 1.204 3.532 1.376 7.424.187 4.22.234 5.485.234 16.159s-.047 11.924-.234 16.144z"/><path d="M50.148 29.457c-11.345 0-20.55 9.205-20.55 20.55 0 11.347 9.205 20.552 20.55 20.552 11.347 0 20.551-9.205 20.551-20.551 0-11.346-9.204-20.551-20.55-20.551zm0 33.882c-7.36 0-13.33-5.97-13.33-13.331s5.97-13.33 13.33-13.33c7.362 0 13.331 5.969 13.331 13.33s-5.97 13.33-13.33 13.33zM76.31 28.644a4.798 4.798 0 11-9.595 0 4.798 4.798 0 019.596 0z"/></g><defs><clipPath id="clip0"><path fill="#fff" transform="translate(10 10)" d="M0 0h80v80H0z"/></clipPath></defs></svg>
